X: 151
T: Sweet Willie
T: Jig, A Dorian
C: Rannie MacLellen
L: 1/16
M: 6/8
K: A Dorian
|: e6 g4f2| e2d2B2 A6| B2A2B2 G4B2| g4f2 e2d2B2| e6 g4f2| e2d2B2 A6| B2A2B2 g2d2B2| [1 A2B2A2 A2B2d2:| [2 A6 A2f2g2|] 
|: a6 e4a2| a2g2e2 e2d2B2| d6 g4f2| e2d2B2 A2[1 f2g2| a6 e4a2| a2g2e2 e2d2B2| d2e2f2 g2d2B2| A2B2A2 A2f2g2:| 
[2 g2f2| e6 g4f2| e2d2B2 A6| B2A2B2 g2d2B2| A2B2A2 A2g2f2|| 
D: Brenda Stubbert, Some Tasty Tunes, STU-0799, 1999
